X: 178
M: 9/8
L: 1/8
K: G
g | d2 c B> c A G2 G |
d> e c B> c A G> A B |
E2 e e> f ^d e2 g | (d>e) f
g> a g (fe) d | (B>c) d d g B d2 g |
d> e c B> c A G> A B |
E2 e e> f ^d e3 | d2 c B> c
d> e c B> c A G> A B |
E2 e e> f ^d e2 |]
K:
K:

